icons/collage-fill.svg

<svg width="24" height="24" fill="none" xmlns="http://www.w3.org/2000/svg"><g clip-path="url(#a)"><path d="M11.189 13.157 12.57 21H4a1 1 0 0 1-1-1v-5.398l8.189-1.445ZM20 3a1 1 0 0 1 1 1v16a1 1 0 0 1-1 1h-5.398L11.428 3H20ZM9.397 3l1.444 8.188L3 12.57V4a1 1 0 0 1 1-1h5.397Z" /></g><defs><clipPath id="a"><path fill="#fff" d="M0 0h24v24H0z"/></clipPath></defs></svg>

<svg xmlns="http://www.w3.org/2000/svg" width="24" height="24" fill="none"><g clip-path="url(#a)"><g><path fill="#121212" d="M11.189 13.157L12.57 21H4C3.448 21 3 20.552 3 20V14.602L11.189 13.157ZM20 3C20.552 3 21 3.448 21 4V20C21 20.552 20.552 21 20 21H14.602L11.428 3H20ZM9.397 3L10.841 11.188L3 12.57V4C3 3.448 3.448 3 4 3H9.397Z"/></g></g><defs><clipPath id="a"><rect width="24" height="24" fill="white"/></clipPath></defs></svg>
